svgs/duotone/city.svg

<svg xmlns="http://www.w3.org/2000/svg" viewBox="0 0 640 512"><!--! Font Awesome Pro 6.4.0 by @fontawesome - https://fontawesome.com License - https://fontawesome.com/license (Commercial License) Copyright 2023 Fonticons, Inc. --><defs><style>.fa-secondary{opacity:.4}</style></defs><path class="fa-primary" d="M112 24c0-13.3-10.7-24-24-24S64 10.7 64 24V96h48V24zm112 0c0-13.3-10.7-24-24-24s-24 10.7-24 24V96h48V24zm16 136H208c-8.8 0-16 7.2-16 16v32c0 8.8 7.2 16 16 16h32c8.8 0 16-7.2 16-16V176c0-8.8-7.2-16-16-16zM576 272c0-8.8-7.2-16-16-16H528c-8.8 0-16 7.2-16 16v32c0 8.8 7.2 16 16 16h32c8.8 0 16-7.2 16-16V272zM112 416c8.8 0 16-7.2 16-16V368c0-8.8-7.2-16-16-16H80c-8.8 0-16 7.2-16 16v32c0 8.8 7.2 16 16 16h32zm144-16V368c0-8.8-7.2-16-16-16H208c-8.8 0-16 7.2-16 16v32c0 8.8 7.2 16 16 16h32c8.8 0 16-7.2 16-16zm320-32c0-8.8-7.2-16-16-16H528c-8.8 0-16 7.2-16 16v32c0 8.8 7.2 16 16 16h32c8.8 0 16-7.2 16-16V368zM128 176c0-8.8-7.2-16-16-16H80c-8.8 0-16 7.2-16 16v32c0 8.8 7.2 16 16 16h32c8.8 0 16-7.2 16-16V176zM240 320c8.8 0 16-7.2 16-16V272c0-8.8-7.2-16-16-16H208c-8.8 0-16 7.2-16 16v32c0 8.8 7.2 16 16 16h32zM128 304V272c0-8.8-7.2-16-16-16H80c-8.8 0-16 7.2-16 16v32c0 8.8 7.2 16 16 16h32c8.8 0 16-7.2 16-16z"/><path class="fa-secondary" d="M432 0c26.5 0 48 21.5 48 48V192H592c26.5 0 48 21.5 48 48V464c0 26.5-21.5 48-48 48H432 336 304 48c-26.5 0-48-21.5-48-48V240 144c0-26.5 21.5-48 48-48H288V48c0-26.5 21.5-48 48-48h96zM560 352H528c-8.8 0-16 7.2-16 16v32c0 8.8 7.2 16 16 16h32c8.8 0 16-7.2 16-16V368c0-8.8-7.2-16-16-16zM256 400V368c0-8.8-7.2-16-16-16H208c-8.8 0-16 7.2-16 16v32c0 8.8 7.2 16 16 16h32c8.8 0 16-7.2 16-16zM112 416c8.8 0 16-7.2 16-16V368c0-8.8-7.2-16-16-16H80c-8.8 0-16 7.2-16 16v32c0 8.8 7.2 16 16 16h32zM576 272c0-8.8-7.2-16-16-16H528c-8.8 0-16 7.2-16 16v32c0 8.8 7.2 16 16 16h32c8.8 0 16-7.2 16-16V272zM240 160H208c-8.8 0-16 7.2-16 16v32c0 8.8 7.2 16 16 16h32c8.8 0 16-7.2 16-16V176c0-8.8-7.2-16-16-16zM128 176c0-8.8-7.2-16-16-16H80c-8.8 0-16 7.2-16 16v32c0 8.8 7.2 16 16 16h32c8.8 0 16-7.2 16-16V176zM240 320c8.8 0 16-7.2 16-16V272c0-8.8-7.2-16-16-16H208c-8.8 0-16 7.2-16 16v32c0 8.8 7.2 16 16 16h32zM128 304V272c0-8.8-7.2-16-16-16H80c-8.8 0-16 7.2-16 16v32c0 8.8 7.2 16 16 16h32c8.8 0 16-7.2 16-16zm272-48H368c-8.8 0-16 7.2-16 16v32c0 8.8 7.2 16 16 16h32c8.8 0 16-7.2 16-16V272c0-8.8-7.2-16-16-16zM416 80c0-8.8-7.2-16-16-16H368c-8.8 0-16 7.2-16 16v32c0 8.8 7.2 16 16 16h32c8.8 0 16-7.2 16-16V80zm-16 80H368c-8.8 0-16 7.2-16 16v32c0 8.8 7.2 16 16 16h32c8.8 0 16-7.2 16-16V176c0-8.8-7.2-16-16-16z"/></svg>

<svg xmlns="http://www.w3.org/2000/svg" viewBox="0 0 640 512"><!--! Font Awesome Pro 6.3.0 by @fontawesome - https://fontawesome.com License - https://fontawesome.com/license (Commercial License) Copyright 2023 Fonticons, Inc. --><defs><style>.fa-secondary{opacity:.4}</style></defs><path class="fa-primary" d="M112 96H64V24C64 10.75 74.75 0 88 0C101.3 0 112 10.75 112 24V96zM224 96H176V24C176 10.75 186.7 0 200 0C213.3 0 224 10.75 224 24V96zM240 160C248.8 160 256 167.2 256 176V208C256 216.8 248.8 224 240 224H208C199.2 224 192 216.8 192 208V176C192 167.2 199.2 160 208 160H240zM576 304C576 312.8 568.8 320 560 320H528C519.2 320 512 312.8 512 304V272C512 263.2 519.2 256 528 256H560C568.8 256 576 263.2 576 272V304zM80 416C71.16 416 64 408.8 64 400V368C64 359.2 71.16 352 80 352H112C120.8 352 128 359.2 128 368V400C128 408.8 120.8 416 112 416H80zM256 400C256 408.8 248.8 416 240 416H208C199.2 416 192 408.8 192 400V368C192 359.2 199.2 352 208 352H240C248.8 352 256 359.2 256 368V400zM576 400C576 408.8 568.8 416 560 416H528C519.2 416 512 408.8 512 400V368C512 359.2 519.2 352 528 352H560C568.8 352 576 359.2 576 368V400zM128 208C128 216.8 120.8 224 112 224H80C71.16 224 64 216.8 64 208V176C64 167.2 71.16 160 80 160H112C120.8 160 128 167.2 128 176V208zM208 320C199.2 320 192 312.8 192 304V272C192 263.2 199.2 256 208 256H240C248.8 256 256 263.2 256 272V304C256 312.8 248.8 320 240 320H208zM128 304C128 312.8 120.8 320 112 320H80C71.16 320 64 312.8 64 304V272C64 263.2 71.16 256 80 256H112C120.8 256 128 263.2 128 272V304z"/><path class="fa-secondary" d="M432 0C458.5 0 480 21.49 480 48V192H592C618.5 192 640 213.5 640 240V464C640 490.5 618.5 512 592 512H48C21.49 512 0 490.5 0 464V144C0 117.5 21.49 96 48 96H288V48C288 21.49 309.5 0 336 0H432zM528 352C519.2 352 512 359.2 512 368V400C512 408.8 519.2 416 528 416H560C568.8 416 576 408.8 576 400V368C576 359.2 568.8 352 560 352H528zM256 368C256 359.2 248.8 352 240 352H208C199.2 352 192 359.2 192 368V400C192 408.8 199.2 416 208 416H240C248.8 416 256 408.8 256 400V368zM112 416C120.8 416 128 408.8 128 400V368C128 359.2 120.8 352 112 352H80C71.16 352 64 359.2 64 368V400C64 408.8 71.16 416 80 416H112zM576 272C576 263.2 568.8 256 560 256H528C519.2 256 512 263.2 512 272V304C512 312.8 519.2 320 528 320H560C568.8 320 576 312.8 576 304V272zM208 160C199.2 160 192 167.2 192 176V208C192 216.8 199.2 224 208 224H240C248.8 224 256 216.8 256 208V176C256 167.2 248.8 160 240 160H208zM128 176C128 167.2 120.8 160 112 160H80C71.16 160 64 167.2 64 176V208C64 216.8 71.16 224 80 224H112C120.8 224 128 216.8 128 208V176zM240 320C248.8 320 256 312.8 256 304V272C256 263.2 248.8 256 240 256H208C199.2 256 192 263.2 192 272V304C192 312.8 199.2 320 208 320H240zM128 272C128 263.2 120.8 256 112 256H80C71.16 256 64 263.2 64 272V304C64 312.8 71.16 320 80 320H112C120.8 320 128 312.8 128 304V272zM368 256C359.2 256 352 263.2 352 272V304C352 312.8 359.2 320 368 320H400C408.8 320 416 312.8 416 304V272C416 263.2 408.8 256 400 256H368zM416 80C416 71.16 408.8 64 400 64H368C359.2 64 352 71.16 352 80V112C352 120.8 359.2 128 368 128H400C408.8 128 416 120.8 416 112V80zM368 160C359.2 160 352 167.2 352 176V208C352 216.8 359.2 224 368 224H400C408.8 224 416 216.8 416 208V176C416 167.2 408.8 160 400 160H368z"/></svg>
